public/assets/logos/rfid-white.svg

<svg fill="none" height="30" viewBox="0 0 30 30" width="30" xmlns="http://www.w3.org/2000/svg"><path d="m15 3.00644c-2.3734 0-4.6935.70364-6.66685 2.02188-1.97339 1.31824-3.51145 3.19193-4.4197 5.38408-.90825 2.1922-1.14589 4.6043-.68287 6.9315.46303 2.3272 1.60592 4.4648 3.28415 6.1426s3.81637 2.8205 6.14417 3.2834 4.7406.2253 6.9333-.6828c2.1927-.908 4.0668-2.4456 5.3854-4.4185s2.0224-4.2924 2.0224-6.6652c0-3.1818-1.2643-6.23325-3.5147-8.48311-2.2505-2.24987-5.3027-3.51385-8.4853-3.51385zm1.3664 15.33016v2.3253c-.0231.3458-.1768.6698-.4299.9066-.2532.2367-.5868.3685-.9335.3685-.3466 0-.6803-.1318-.9334-.3685-.2531-.2368-.4068-.5608-.4299-.9066v-2.3253c-.4171-.2902-.7306-.706-.895-1.1867s-.171-1.0013-.0189-1.486.455-.9082.8646-1.2089.9045-.4629 1.4126-.4629c.5082 0 1.0031.1622 1.4127.4629.4095.3007.7124.7242.8645 1.2089s.1456 1.0053-.0188 1.486-.4779.8965-.895 1.1867zm3.0364-7.2492h-8.8239c-.1161 0-.2311-.0229-.3383-.0676-.1073-.0446-.2046-.11-.28645-.1924s-.14659-.1802-.19048-.2877c-.0439-.1075-.06608-.2226-.06528-.3387-.00081-.1542.04121-.30551.12143-.43716.12753-.1275.26118-.24891.40088-.37034 1.3378-1.14283 3.0415-1.76769 4.8012-1.761 1.7598.00668 3.4586.6445 4.7878 1.79746.1154.09714.2247.20036.334.30357.0931.14024.1418.30517.1397.47347.0001.2304-.0902.4516-.2514.6162-.1613.1646-.3806.2595-.6109.2642z" fill="#fff"/></svg>

<svg width="30" height="30" viewBox="0 0 30 30" fill="none" xmlns="http://www.w3.org/2000/svg">
<path d="M15 3.00644C12.6266 3.00644 10.3065 3.71008 8.33315 5.02832C6.35976 6.34656 4.8217 8.22025 3.91345 10.4124C3.0052 12.6046 2.76756 15.0167 3.23058 17.3439C3.69361 19.6711 4.8365 21.8087 6.51473 23.4865C8.19296 25.1643 10.3311 26.307 12.6589 26.7699C14.9867 27.2328 17.3995 26.9952 19.5922 26.0871C21.7849 25.1791 23.659 23.6415 24.9776 21.6686C26.2962 19.6957 27 17.3762 27 15.0034C27 11.8216 25.7357 8.77015 23.4853 6.52029C21.2348 4.27042 18.1826 3.00644 15 3.00644ZM16.3664 18.3366V20.6619C16.3433 21.0077 16.1896 21.3317 15.9365 21.5685C15.6833 21.8052 15.3497 21.937 15.003 21.937C14.6564 21.937 14.3227 21.8052 14.0696 21.5685C13.8165 21.3317 13.6628 21.0077 13.6397 20.6619V18.3366C13.2226 18.0464 12.9091 17.6306 12.7447 17.1499C12.5803 16.6692 12.5737 16.1486 12.7258 15.6639C12.8779 15.1792 13.1808 14.7557 13.5904 14.455C14 14.1543 14.4949 13.9921 15.003 13.9921C15.5112 13.9921 16.0061 14.1543 16.4157 14.455C16.8252 14.7557 17.1281 15.1792 17.2802 15.6639C17.4323 16.1486 17.4258 16.6692 17.2614 17.1499C17.097 17.6306 16.7835 18.0464 16.3664 18.3366ZM19.4028 11.0874H10.5789C10.4628 11.0874 10.3478 11.0645 10.2406 11.0198C10.1333 10.9752 10.036 10.9098 9.95415 10.8274C9.8723 10.745 9.80756 10.6472 9.76367 10.5397C9.71977 10.4322 9.69759 10.3171 9.69839 10.201C9.69758 10.0468 9.7396 9.89549 9.81982 9.76384C9.94735 9.63634 10.081 9.51493 10.2207 9.3935C11.5585 8.25067 13.2622 7.62581 15.0219 7.6325C16.7817 7.63918 18.4805 8.277 19.8097 9.42996C19.9251 9.5271 20.0344 9.63032 20.1437 9.73353C20.2368 9.87377 20.2855 10.0387 20.2834 10.207C20.2835 10.4374 20.1932 10.6586 20.032 10.8232C19.8707 10.9878 19.6514 11.0827 19.4211 11.0874H19.4028Z" fill="white"/>
</svg>
